X:17
T:The Kesh Jig                                                                                      
M:6/8                                                                                               
K:G                                                                                                 
L:1/8                                                                                               
D|G>AG GAB|A>BA ABd|edd gdd|edB dBA|\                                                               
G>AG GAB|A>BA ABd|edd gdB|AGF G2 :|                                                                 
|A|BGB dBd|ege dBG|BGB dBG|ABA AGA|\                                                                
BGB dBd|ege dBd|gfg aba|bgf g2 :|
